X:22
T:Slunk Jerk (Bingsj\"o) [check]
Z:2000 Brian Wilson 
M:3/4
L:1/8
K:D
|: A>c e2 e2 \
| e/f/e/c/ A>B AG \
| F2 A/B/A/F/ Ad \
| f>e dc/d/ e2 |
| A>c e2 e2 \
| e/f/e/c/ A>B AG \
| F2 A/B/A/F/ Ad \
| f2 d4 :|
P:B
|: df a2 b/a/g/f/ \
| ef g2 a/g/f/e/ \
| de f2 f2 \
| e/d/c/B/ A/B/A/G/ F/D/F/A/ |
| df a2 b/a/g/f/ \
| ef g2 a/g/f/e/ \
| de/f/ gb/a/ g/f/e/d/ \
| c/d/e/c/ d3 A :|
